mono-glyphs/music2-w.svg

<svg xmlns="http://www.w3.org/2000/svg" width="1025" height="1025" fill="none" viewBox="0 0 1025 1025">
  <path fill="#fff" d="M960.333 49.33v753.652c0 21.816-4.444 42.289-13.333 61.42s-20.854 35.828-35.897 50.093c-15.044 14.264-32.479 25.507-52.308 33.73-19.829 8.223-40.684 12.335-62.564 12.335-22.906 0-44.274-4.196-64.103-12.587-19.829-8.39-37.179-19.885-52.051-34.485-14.872-14.6-26.582-31.634-35.128-51.1-8.547-19.466-12.821-40.443-12.821-62.93 0-21.48 4.188-41.954 12.564-61.42 8.377-19.466 19.829-36.583 34.359-51.351 14.531-14.768 31.539-26.514 51.026-35.241 19.487-8.726 40.341-13.089 62.564-13.089 18.462 0 36.41 2.601 53.846 7.803 17.436 5.203 33.505 13.341 48.205 24.417V298.03L435.205 467.187v400.236c0 21.816-4.444 42.289-13.333 61.42-8.889 19.13-20.855 35.828-35.898 50.092-15.043 14.265-32.479 25.505-52.307 33.735-19.829 8.22-40.684 12.33-62.564 12.33-22.906 0-44.274-4.2-64.103-12.59-19.829-8.38-37.179-19.882-52.051-34.482-14.872-14.6-26.582-31.633-35.128-51.099-8.547-19.466-12.821-40.444-12.821-62.93 0-21.48 4.188-41.954 12.564-61.42 8.376-19.466 19.829-36.583 34.359-51.351 14.53-14.768 31.539-26.514 51.026-35.241 19.487-8.727 40.341-13.09 62.564-13.09 18.461 0 36.325 2.601 53.59 7.804 17.264 5.202 33.248 13.173 47.948 23.913L367 231.073c0-9.734 2.992-18.879 8.974-27.438 5.983-8.558 13.761-14.683 23.334-18.375L894.179 4.02C899.308 2.008 904.949 1 911.103 1c13.674 0 25.299 4.699 34.871 14.096 9.573 9.398 14.359 20.81 14.359 34.234ZM433.154 241.645v157.074l461.538-169.157V72.489L433.154 241.645Zm461.538 557.813c0-13.089-2.564-25.507-7.692-37.254-5.128-11.748-12.223-22.068-21.282-30.962-9.06-8.894-19.572-15.858-31.539-20.893-11.966-5.034-24.615-7.552-37.948-7.552-13.334 0-25.983 2.518-37.949 7.552-11.966 5.035-22.479 11.999-31.538 20.893-9.06 8.894-16.154 19.214-21.282 30.962-5.129 11.747-7.693 24.165-7.693 37.254 0 13.09 2.564 25.508 7.693 37.255 5.128 11.747 12.222 22.068 21.282 30.962 9.059 8.893 19.572 15.858 31.538 20.892 11.966 5.035 24.615 7.552 37.949 7.552 13.333 0 25.982-2.517 37.948-7.552 11.967-5.034 22.479-11.999 31.539-20.892 9.059-8.894 16.154-19.215 21.282-30.962s7.692-24.165 7.692-37.255Zm-525.128 63.937c0-13.089-2.564-25.507-7.692-37.254-5.128-11.748-12.223-21.984-21.282-30.71-9.06-8.727-19.573-15.607-31.539-20.641-11.966-5.035-24.615-7.552-37.948-7.552-13.334 0-25.983 2.517-37.949 7.552-11.966 5.034-22.479 11.999-31.539 20.892-9.059 8.894-16.153 19.215-21.282 30.962-5.128 11.747-7.692 24.165-7.692 37.255 0 13.089 2.564 25.507 7.692 37.254 5.129 11.748 12.223 22.068 21.282 30.962 9.06 8.894 19.573 15.858 31.539 20.893 11.966 5.034 24.615 7.552 37.949 7.552 13.674 0 26.495-2.601 38.461-7.804 11.966-5.202 22.393-12.166 31.282-20.893 8.889-8.726 15.898-19.047 21.026-30.961 5.128-11.915 7.692-24.417 7.692-37.507Z"/>
</svg>

<svg width="1025" height="1025" viewBox="0 0 1025 1025" fill="none" xmlns="http://www.w3.org/2000/svg">
<g clip-path="url(#clip0_12_174)">
<path d="M960.333 49.3304V802.982C960.333 824.798 955.889 845.271 947 864.402C938.111 883.533 926.146 900.23 911.103 914.495C896.059 928.759 878.624 940.002 858.795 948.225C838.966 956.448 818.111 960.56 796.231 960.56C773.325 960.56 751.957 956.364 732.128 947.973C712.299 939.583 694.949 928.088 680.077 913.488C665.205 898.888 653.495 881.854 644.949 862.388C636.402 842.922 632.128 821.945 632.128 799.458C632.128 777.978 636.316 757.504 644.692 738.038C653.069 718.572 664.521 701.455 679.051 686.687C693.582 671.919 710.59 660.173 730.077 651.446C749.564 642.72 770.418 638.357 792.641 638.357C811.103 638.357 829.051 640.958 846.487 646.16C863.923 651.363 879.992 659.501 894.692 670.577V298.03L435.205 467.187V867.423C435.205 889.239 430.761 909.712 421.872 928.843C412.983 947.973 401.017 964.671 385.974 978.935C370.931 993.2 353.495 1004.44 333.667 1012.67C313.838 1020.89 292.983 1025 271.103 1025C248.197 1025 226.829 1020.8 207 1012.41C187.171 1004.03 169.821 992.528 154.949 977.928C140.077 963.328 128.367 946.295 119.821 926.829C111.274 907.363 107 886.385 107 863.899C107 842.419 111.188 821.945 119.564 802.479C127.94 783.013 139.393 765.896 153.923 751.128C168.453 736.36 185.462 724.614 204.949 715.887C224.436 707.16 245.29 702.797 267.513 702.797C285.974 702.797 303.838 705.398 321.103 710.601C338.367 715.803 354.351 723.774 369.051 734.514L367 231.073C367 221.339 369.992 212.194 375.974 203.635C381.957 195.077 389.735 188.952 399.308 185.26L894.179 4.02065C899.308 2.00694 904.949 1.00006 911.103 1C924.777 1.00006 936.402 5.69882 945.974 15.0964C955.547 24.494 960.333 35.9053 960.333 49.3304ZM433.154 241.645V398.719L894.692 229.562V72.4887L433.154 241.645ZM894.692 799.458C894.692 786.369 892.128 773.951 887 762.204C881.872 750.456 874.777 740.136 865.718 731.242C856.658 722.348 846.146 715.384 834.179 710.349C822.213 705.315 809.564 702.797 796.231 702.797C782.897 702.797 770.248 705.315 758.282 710.349C746.316 715.384 735.803 722.348 726.744 731.242C717.684 740.136 710.59 750.456 705.462 762.204C700.333 773.951 697.769 786.369 697.769 799.458C697.769 812.548 700.333 824.966 705.462 836.713C710.59 848.46 717.684 858.781 726.744 867.675C735.803 876.568 746.316 883.533 758.282 888.567C770.248 893.602 782.897 896.119 796.231 896.119C809.564 896.119 822.213 893.602 834.179 888.567C846.146 883.533 856.658 876.568 865.718 867.675C874.777 858.781 881.872 848.46 887 836.713C892.128 824.966 894.692 812.548 894.692 799.458ZM369.564 863.395C369.564 850.306 367 837.888 361.872 826.141C356.744 814.393 349.649 804.157 340.59 795.431C331.53 786.704 321.017 779.824 309.051 774.79C297.085 769.755 284.436 767.238 271.103 767.238C257.769 767.238 245.12 769.755 233.154 774.79C221.188 779.824 210.675 786.789 201.615 795.682C192.556 804.576 185.462 814.897 180.333 826.644C175.205 838.391 172.641 850.809 172.641 863.899C172.641 876.988 175.205 889.406 180.333 901.153C185.462 912.901 192.556 923.221 201.615 932.115C210.675 941.009 221.188 947.973 233.154 953.008C245.12 958.042 257.769 960.56 271.103 960.56C284.777 960.56 297.598 957.959 309.564 952.756C321.53 947.554 331.957 940.59 340.846 931.863C349.735 923.137 356.744 912.816 361.872 900.902C367 888.987 369.564 876.485 369.564 863.395Z" fill="white"/>
</g>
<defs>
<clipPath id="clip0_12_174">
<rect width="853.333" height="1024" fill="white" transform="translate(107 1)"/>
</clipPath>
</defs>
</svg>
